**kern	**kern	**dynam
*part1	*part1	*part1
*staff2	*staff1	*
*I"Piano	*	*
*clefF4	*clefG2	*
*k[f#c#g#]	*k[f#c#g#]	*
=1	=1	=1
4F# 4A	4a 4dd	.
4Fn 4A	4a 4ccn 4dd#X	.
=	=	=
8E 8A 8c#X	[2a [2cc#X [2ff#X	.
(8EEL	.	.
8AA	.	.
8C#J	.	.
=	=	=
4E)	4a] 4cc#] 4ff#]	.
(4E 4B	(4g# 4ee	.
=	=	=
!	!LO:TX:a:t=sempre ritardando	!
4F# 4A	4a 4cc#	.
4C# 4G#	4g# 4ee	<
=	=	=
4D 4F#	4f# 4a	.
4BB 4B	4f# 4b 4dd	.
=	=	=
[2E [2d	[2e [2g# [2cc#	[
=	=	=
2E] 2d]	2e] 2g#] 2cc#]	.
=	=	=
*-	*-	*-
!!!system-decoration: {(s1,s2)}
